app/images/curve-medium.svg

<svg width="162" height="47" viewBox="0 0 162 47" fill="none" xmlns="http://www.w3.org/2000/svg">
<rect width="161" height="46" transform="translate(0.8125 0.0820312)" fill="white"/>
<path d="M64.268 1.50517L66.898 5.04517L69.548 1.50517H70.388V8.60517H69.468V3.08517L66.908 6.52517L64.348 3.08517V8.60517H63.418V1.50517H64.268Z" fill="#037DD6"/>
<path d="M74.2575 8.70517C73.8708 8.70517 73.5175 8.6385 73.1975 8.50517C72.8775 8.37183 72.6042 8.1885 72.3775 7.95517C72.1508 7.72183 71.9742 7.4485 71.8475 7.13517C71.7275 6.81517 71.6675 6.47183 71.6675 6.10517C71.6675 5.7385 71.7308 5.3985 71.8575 5.08517C71.9842 4.76517 72.1608 4.4885 72.3875 4.25517C72.6208 4.02183 72.8975 3.8385 73.2175 3.70517C73.5375 3.57183 73.8875 3.50517 74.2675 3.50517C74.5942 3.50517 74.9008 3.56183 75.1875 3.67517C75.4742 3.78183 75.7242 3.94517 75.9375 4.16517C76.1575 4.3785 76.3308 4.64183 76.4575 4.95517C76.5842 5.26183 76.6475 5.61517 76.6475 6.01517C76.6475 6.06183 76.6475 6.10517 76.6475 6.14517C76.6475 6.1785 76.6442 6.22183 76.6375 6.27517H72.5375C72.5442 6.5085 72.5908 6.72517 72.6775 6.92517C72.7708 7.12517 72.8908 7.2985 73.0375 7.44517C73.1908 7.59183 73.3708 7.7085 73.5775 7.79517C73.7908 7.87517 74.0208 7.91517 74.2675 7.91517C74.6542 7.91517 74.9708 7.8385 75.2175 7.68517C75.4708 7.52517 75.6742 7.31183 75.8275 7.04517L76.5075 7.51517C76.2808 7.88183 75.9775 8.17183 75.5975 8.38517C75.2242 8.5985 74.7775 8.70517 74.2575 8.70517ZM75.7675 5.57517C75.7342 5.3685 75.6708 5.18517 75.5775 5.02517C75.4908 4.86517 75.3775 4.7285 75.2375 4.61517C75.1042 4.50183 74.9508 4.41517 74.7775 4.35517C74.6042 4.29517 74.4242 4.26517 74.2375 4.26517C74.0508 4.26517 73.8675 4.29517 73.6875 4.35517C73.5075 4.41517 73.3442 4.50183 73.1975 4.61517C73.0508 4.72183 72.9242 4.8585 72.8175 5.02517C72.7108 5.18517 72.6375 5.3685 72.5975 5.57517H75.7675Z" fill="#037DD6"/>
<path d="M79.928 8.70517C79.5747 8.70517 79.248 8.6385 78.948 8.50517C78.6547 8.36517 78.398 8.1785 78.178 7.94517C77.958 7.70517 77.7847 7.4285 77.658 7.11517C77.538 6.80183 77.478 6.46517 77.478 6.10517C77.478 5.74517 77.538 5.4085 77.658 5.09517C77.7847 4.78183 77.958 4.5085 78.178 4.27517C78.398 4.03517 78.6547 3.8485 78.948 3.71517C79.248 3.57517 79.5747 3.50517 79.928 3.50517C80.308 3.50517 80.6547 3.59183 80.968 3.76517C81.2814 3.93183 81.5214 4.13517 81.688 4.37517V1.10517H82.548V8.60517H81.688V7.83517C81.5214 8.07517 81.2814 8.28183 80.968 8.45517C80.6547 8.62183 80.308 8.70517 79.928 8.70517ZM80.058 7.91517C80.3114 7.91517 80.5414 7.8685 80.748 7.77517C80.9547 7.68183 81.1314 7.55517 81.278 7.39517C81.4314 7.2285 81.548 7.03517 81.628 6.81517C81.7147 6.59517 81.758 6.3585 81.758 6.10517C81.758 5.85183 81.7147 5.61517 81.628 5.39517C81.548 5.17517 81.4314 4.98517 81.278 4.82517C81.1314 4.6585 80.9547 4.5285 80.748 4.43517C80.5414 4.34183 80.3114 4.29517 80.058 4.29517C79.8047 4.29517 79.5714 4.34183 79.358 4.43517C79.1514 4.5285 78.9714 4.6585 78.818 4.82517C78.6714 4.98517 78.5547 5.17517 78.468 5.39517C78.388 5.61517 78.348 5.85183 78.348 6.10517C78.348 6.3585 78.388 6.59517 78.468 6.81517C78.5547 7.03517 78.6714 7.2285 78.818 7.39517C78.9714 7.55517 79.1514 7.68183 79.358 7.77517C79.5714 7.8685 79.8047 7.91517 80.058 7.91517Z" fill="#037DD6"/>
<path d="M84.6069 2.26517C84.4335 2.26517 84.2869 2.2085 84.1669 2.09517C84.0469 1.97517 83.9869 1.8285 83.9869 1.65517C83.9869 1.4885 84.0469 1.34517 84.1669 1.22517C84.2869 1.10517 84.4335 1.04517 84.6069 1.04517C84.7802 1.04517 84.9235 1.10517 85.0369 1.22517C85.1502 1.34517 85.2069 1.4885 85.2069 1.65517C85.2069 1.8285 85.1502 1.97517 85.0369 2.09517C84.9235 2.2085 84.7802 2.26517 84.6069 2.26517ZM84.1669 3.60517H85.0269V8.60517H84.1669V3.60517Z" fill="#037DD6"/>
<path d="M88.4271 8.70517C88.1538 8.70517 87.9038 8.6585 87.6771 8.56517C87.4504 8.46517 87.2571 8.3285 87.0971 8.15517C86.9371 7.98183 86.8104 7.77183 86.7171 7.52517C86.6304 7.27183 86.5871 6.9885 86.5871 6.67517V3.60517H87.4471V6.54517C87.4471 6.96517 87.5471 7.2985 87.7471 7.54517C87.9538 7.79183 88.2304 7.91517 88.5771 7.91517C88.7704 7.91517 88.9504 7.87517 89.1171 7.79517C89.2904 7.7085 89.4371 7.5885 89.5571 7.43517C89.6838 7.27517 89.7838 7.08183 89.8571 6.85517C89.9304 6.6285 89.9671 6.37183 89.9671 6.08517V3.60517H90.8271V8.60517H89.9671V7.83517C89.8004 8.1285 89.5804 8.3485 89.3071 8.49517C89.0404 8.63517 88.7471 8.70517 88.4271 8.70517Z" fill="#037DD6"/>
<path d="M98.8881 5.66517C98.8881 5.2585 98.8048 4.9285 98.6381 4.67517C98.4715 4.42183 98.2248 4.29517 97.8981 4.29517C97.4981 4.29517 97.1715 4.45183 96.9181 4.76517C96.6715 5.0785 96.5415 5.50517 96.5281 6.04517V8.60517H95.6681V5.66517C95.6681 5.2585 95.5848 4.9285 95.4181 4.67517C95.2581 4.42183 95.0148 4.29517 94.6881 4.29517C94.2815 4.29517 93.9481 4.4585 93.6881 4.78517C93.4348 5.11183 93.3081 5.5585 93.3081 6.12517V8.60517H92.4481V3.60517H93.3081V4.37517C93.4548 4.1085 93.6581 3.8985 93.9181 3.74517C94.1781 3.58517 94.4781 3.50517 94.8181 3.50517C95.1915 3.50517 95.5081 3.60183 95.7681 3.79517C96.0348 3.98183 96.2315 4.24183 96.3581 4.57517C96.4915 4.2485 96.7015 3.9885 96.9881 3.79517C97.2815 3.60183 97.6181 3.50517 97.9981 3.50517C98.2715 3.50517 98.5148 3.55517 98.7281 3.65517C98.9481 3.7485 99.1315 3.88517 99.2781 4.06517C99.4315 4.2385 99.5481 4.45183 99.6281 4.70517C99.7081 4.95183 99.7481 5.2285 99.7481 5.53517V8.60517H98.8881V5.66517Z" fill="#037DD6"/>
<path opacity="0.3" d="M45.774 37.738C35.0101 45.158 26.3574 45.738 26.3574 45.738H136.608C136.608 45.738 127.955 45.158 117.191 37.738C106.427 30.3181 93.8273 15.738 81.4825 15.738C69.1377 15.738 56.5378 30.3181 45.774 37.738Z" fill="#037DD6"/>
<mask id="mask0_2140_17999" style="mask-type:alpha" maskUnits="userSpaceOnUse" x="26" y="15" width="111" height="31">
<path d="M45.774 37.6052C35.0101 45.0252 26.3574 45.6052 26.3574 45.6052H136.608C136.608 45.6052 127.955 45.0252 117.191 37.6052C106.427 30.1853 93.8273 15.6052 81.4825 15.6052C69.1377 15.6052 56.5378 30.1853 45.774 37.6052Z" fill="#EAF6FF"/>
</mask>
<g mask="url(#mask0_2140_17999)">
<rect x="62.3125" y="9.79077" width="37.3435" height="39.25" fill="#037DD6" stroke="white" stroke-width="2"/>
</g>
</svg>

<svg width="162" height="47" fill="none" xmlns="http://www.w3.org/2000/svg"><path fill="#fff" d="M.813.082h161v46h-161z"/><path d="m64.268 1.505 2.63 3.54 2.65-3.54h.84v7.1h-.92v-5.52l-2.56 3.44-2.56-3.44v5.52h-.93v-7.1h.85ZM74.257 8.705a2.73 2.73 0 0 1-1.06-.2 2.432 2.432 0 0 1-1.35-1.37 2.91 2.91 0 0 1-.18-1.03c0-.367.064-.707.19-1.02.127-.32.304-.596.53-.83.234-.233.51-.417.83-.55.32-.133.67-.2 1.05-.2.327 0 .634.057.92.17.287.107.537.27.75.49.22.213.394.477.52.79.127.307.19.66.19 1.06v.13c0 .034-.003.077-.01.13h-4.1c.007.233.054.45.14.65.094.2.214.373.36.52.154.147.334.263.54.35.214.08.444.12.69.12.387 0 .704-.077.95-.23.254-.16.457-.373.61-.64l.68.47c-.226.367-.53.657-.91.87-.373.213-.82.32-1.34.32Zm1.51-3.13a1.58 1.58 0 0 0-.19-.55c-.086-.16-.2-.296-.34-.41a1.42 1.42 0 0 0-.46-.26 1.639 1.639 0 0 0-.54-.09 1.728 1.728 0 0 0-1.04.35 1.498 1.498 0 0 0-.38.41 1.49 1.49 0 0 0-.22.55h3.17ZM79.928 8.705c-.353 0-.68-.066-.98-.2a2.57 2.57 0 0 1-.77-.56 2.732 2.732 0 0 1-.52-.83 2.8 2.8 0 0 1-.18-1.01c0-.36.06-.697.18-1.01.127-.313.3-.587.52-.82a2.36 2.36 0 0 1 1.75-.77c.38 0 .727.087 1.04.26.313.167.553.37.72.61v-3.27h.86v7.5h-.86v-.77c-.167.24-.407.447-.72.62a2.18 2.18 0 0 1-1.04.25Zm.13-.79a1.606 1.606 0 0 0 1.22-.52c.153-.167.27-.36.35-.58.087-.22.13-.457.13-.71 0-.253-.043-.49-.13-.71-.08-.22-.197-.41-.35-.57a1.542 1.542 0 0 0-.53-.39 1.657 1.657 0 0 0-.69-.14c-.253 0-.487.047-.7.14a1.65 1.65 0 0 0-.54.39c-.147.16-.263.35-.35.57-.08.22-.12.457-.12.71 0 .253.04.49.12.71.087.22.203.413.35.58.153.16.333.287.54.38.213.093.447.14.7.14ZM84.607 2.265a.599.599 0 0 1-.62-.61c0-.167.06-.31.18-.43s.266-.18.44-.18c.173 0 .317.06.43.18.113.12.17.263.17.43 0 .173-.057.32-.17.44a.583.583 0 0 1-.43.17Zm-.44 1.34h.86v5h-.86v-5ZM88.427 8.705c-.273 0-.523-.046-.75-.14-.227-.1-.42-.236-.58-.41a1.916 1.916 0 0 1-.38-.63 2.614 2.614 0 0 1-.13-.85v-3.07h.86v2.94c0 .42.1.753.3 1 .207.247.483.37.83.37.193 0 .373-.04.54-.12.173-.087.32-.207.44-.36.127-.16.227-.353.3-.58.073-.227.11-.483.11-.77v-2.48h.86v5h-.86v-.77a1.654 1.654 0 0 1-.66.66c-.267.14-.56.21-.88.21ZM98.888 5.665c0-.407-.083-.737-.25-.99-.166-.253-.413-.38-.74-.38-.4 0-.727.157-.98.47-.247.314-.377.74-.39 1.28v2.56h-.86v-2.94c0-.407-.083-.737-.25-.99-.16-.253-.403-.38-.73-.38-.407 0-.74.163-1 .49-.253.327-.38.774-.38 1.34v2.48h-.86v-5h.86v.77a1.63 1.63 0 0 1 .61-.63c.26-.16.56-.24.9-.24.374 0 .69.097.95.29.267.187.463.447.59.78.133-.327.343-.587.63-.78.293-.193.63-.29 1.01-.29.273 0 .517.05.73.15.22.094.404.23.55.41.153.173.27.387.35.64.08.247.12.524.12.83v3.07h-.86v-2.94Z" fill="#037DD6"/><path opacity=".3" d="M45.774 37.738c-10.764 7.42-19.417 8-19.417 8h110.251s-8.653-.58-19.417-8c-10.764-7.42-23.364-22-35.709-22-12.344 0-24.944 14.58-35.708 22Z" fill="#037DD6"/><mask id="a" style="mask-type:alpha" maskUnits="userSpaceOnUse" x="26" y="15" width="111" height="31"><path d="M45.774 37.605c-10.764 7.42-19.417 8-19.417 8h110.251s-8.653-.58-19.417-8c-10.764-7.42-23.364-22-35.709-22-12.344 0-24.944 14.58-35.708 22Z" fill="#EAF6FF"/></mask><g mask="url(#a)"><path fill="#037DD6" stroke="#fff" stroke-width="2" d="M62.313 9.791h37.343v39.25H62.313z"/></g></svg>
